X: 3326
T:Gan Ainm
S:John Walsh <walsh@MATH.UBC.CA>, irtrad-l, 4/94
M:6/8
L:1/8
K:G
GA|BAB cBc|dgg d2g|fed cAF|Ggg d2c|!
BAB cBc|dgg d2g|fed cAF|GAG G:|!
Bd|gGG fGG|efg d2c|BAG A2g|fed efg|!
agf gfe|fed fga|gfe def|gGG G:|!
